X: 1
O: Montreal, Canada
S: Wednesday Night at O'Reagans
R: reel
T:Les Filles de Peveril / Peveril Lasses
C:Jean Duval, Montreal 07/1983
N:Montreal 07/1983
Q:1/4=200
M:2/2
L:1/8
Z: Contributed 20040301221919 by Robin Beech robin.beech@mcgill.ca
K:D
F2 fe dcBA |G2 BG dGBG |F2 fe dcBA |cAeA fAeA |F2 fe dcBA |G3 B DGEG |F2 fe dcBA |AcBd cecA ::d2 dc defd |e2 ed egfe |dAFA d2 dA |BAGF EFGE |d2 dc defd |e2 ed efge |bfde fdGB |1decA BABc :|2decA B3 A ::
FBdB FBdB |GBdB GBdB |FBdB FBdB |AcBd cecA |FdBF dFBd |GdBG dGBd |bfde fdGB |1decA B3 A :|2decA B4 :|
